bernoullicharts/exp_-x_flajolet__mean.svg

<?xml version="1.0" encoding="utf-8" standalone="no"?>
<!DOCTYPE svg PUBLIC "-//W3C//DTD SVG 1.1//EN"
  "http://www.w3.org/Graphics/SVG/1.1/DTD/svg11.dtd">
<!-- Created with matplotlib (https://matplotlib.org/) -->
<svg height="345.6pt" version="1.1" viewBox="0 0 460.8 345.6" width="460.8pt" xmlns="http://www.w3.org/2000/svg" xmlns:xlink="http://www.w3.org/1999/xlink">
 <defs>
  <style type="text/css">
*{stroke-linecap:butt;stroke-linejoin:round;}
  </style>
 </defs>
 <g id="figure_1">
  <g id="patch_1">
   <path d="M 0 345.6 
L 460.8 345.6 
L 460.8 0 
L 0 0 
z
" style="fill:#ffffff;"/>
  </g>
  <g id="axes_1">
   <g id="patch_2">
    <path d="M 57.6 307.584 
L 414.72 307.584 
L 414.72 41.472 
L 57.6 41.472 
z
" style="fill:#ffffff;"/>
   </g>
   <g id="matplotlib.axis_1">
    <g id="xtick_1">
     <g id="line2d_1">
      <defs>
       <path d="M 0 0 
L 0 3.5 
" id="m805962f508" style="stroke:#000000;stroke-width:0.8;"/>
      </defs>
      <g>
       <use style="stroke:#000000;stroke-width:0.8;" x="73.800255" xlink:href="#m805962f508" y="307.584"/>
      </g>
     </g>
     <g id="text_1">
      <text style="font-family:DejaVu Sans;font-size:10px;font-style:normal;font-weight:normal;text-anchor:middle;" transform="rotate(-0, 73.800255, 322.182437)" x="73.800255" y="322.182437">0.0</text>
     </g>
    </g>
    <g id="xtick_2">
     <g id="line2d_2">
      <g>
       <use style="stroke:#000000;stroke-width:0.8;" x="138.744153" xlink:href="#m805962f508" y="307.584"/>
      </g>
     </g>
     <g id="text_2">
      <text style="font-family:DejaVu Sans;font-size:10px;font-style:normal;font-weight:normal;text-anchor:middle;" transform="rotate(-0, 138.744153, 322.182437)" x="138.744153" y="322.182437">0.2</text>
     </g>
    </g>
    <g id="xtick_3">
     <g id="line2d_3">
      <g>
       <use style="stroke:#000000;stroke-width:0.8;" x="203.688051" xlink:href="#m805962f508" y="307.584"/>
      </g>
     </g>
     <g id="text_3">
      <text style="font-family:DejaVu Sans;font-size:10px;font-style:normal;font-weight:normal;text-anchor:middle;" transform="rotate(-0, 203.688051, 322.182437)" x="203.688051" y="322.182437">0.4</text>
     </g>
    </g>
    <g id="xtick_4">
     <g id="line2d_4">
      <g>
       <use style="stroke:#000000;stroke-width:0.8;" x="268.631949" xlink:href="#m805962f508" y="307.584"/>
      </g>
     </g>
     <g id="text_4">
      <text style="font-family:DejaVu Sans;font-size:10px;font-style:normal;font-weight:normal;text-anchor:middle;" transform="rotate(-0, 268.631949, 322.182437)" x="268.631949" y="322.182437">0.6</text>
     </g>
    </g>
    <g id="xtick_5">
     <g id="line2d_5">
      <g>
       <use style="stroke:#000000;stroke-width:0.8;" x="333.575847" xlink:href="#m805962f508" y="307.584"/>
      </g>
     </g>
     <g id="text_5">
      <text style="font-family:DejaVu Sans;font-size:10px;font-style:normal;font-weight:normal;text-anchor:middle;" transform="rotate(-0, 333.575847, 322.182437)" x="333.575847" y="322.182437">0.8</text>
     </g>
    </g>
    <g id="xtick_6">
     <g id="line2d_6">
      <g>
       <use style="stroke:#000000;stroke-width:0.8;" x="398.519745" xlink:href="#m805962f508" y="307.584"/>
      </g>
     </g>
     <g id="text_6">
      <text style="font-family:DejaVu Sans;font-size:10px;font-style:normal;font-weight:normal;text-anchor:middle;" transform="rotate(-0, 398.519745, 322.182437)" x="398.519745" y="322.182437">1.0</text>
     </g>
    </g>
    <g id="text_7">
     <text style="font-family:DejaVu Sans;font-size:10px;font-style:normal;font-weight:normal;text-anchor:middle;" transform="rotate(-0, 236.16, 335.860562)" x="236.16" y="335.860562">Input Coin's Heads Probability (λ)</text>
    </g>
   </g>
   <g id="matplotlib.axis_2">
    <g id="ytick_1">
     <g id="line2d_7">
      <defs>
       <path d="M 0 0 
L -3.5 0 
" id="m5b5d135f45" style="stroke:#000000;stroke-width:0.8;"/>
      </defs>
      <g>
       <use style="stroke:#000000;stroke-width:0.8;" x="57.6" xlink:href="#m5b5d135f45" y="281.792262"/>
      </g>
     </g>
     <g id="text_8">
      <text style="font-family:DejaVu Sans;font-size:10px;font-style:normal;font-weight:normal;text-anchor:end;" transform="rotate(-0, 50.6, 285.591481)" x="50.6" y="285.591481">0.4</text>
     </g>
    </g>
    <g id="ytick_2">
     <g id="line2d_8">
      <g>
       <use style="stroke:#000000;stroke-width:0.8;" x="57.6" xlink:href="#m5b5d135f45" y="243.748545"/>
      </g>
     </g>
     <g id="text_9">
      <text style="font-family:DejaVu Sans;font-size:10px;font-style:normal;font-weight:normal;text-anchor:end;" transform="rotate(-0, 50.6, 247.547763)" x="50.6" y="247.547763">0.5</text>
     </g>
    </g>
    <g id="ytick_3">
     <g id="line2d_9">
      <g>
       <use style="stroke:#000000;stroke-width:0.8;" x="57.6" xlink:href="#m5b5d135f45" y="205.704827"/>
      </g>
     </g>
     <g id="text_10">
      <text style="font-family:DejaVu Sans;font-size:10px;font-style:normal;font-weight:normal;text-anchor:end;" transform="rotate(-0, 50.6, 209.504046)" x="50.6" y="209.504046">0.6</text>
     </g>
    </g>
    <g id="ytick_4">
     <g id="line2d_10">
      <g>
       <use style="stroke:#000000;stroke-width:0.8;" x="57.6" xlink:href="#m5b5d135f45" y="167.66111"/>
      </g>
     </g>
     <g id="text_11">
      <text style="font-family:DejaVu Sans;font-size:10px;font-style:normal;font-weight:normal;text-anchor:end;" transform="rotate(-0, 50.6, 171.460329)" x="50.6" y="171.460329">0.7</text>
     </g>
    </g>
    <g id="ytick_5">
     <g id="line2d_11">
      <g>
       <use style="stroke:#000000;stroke-width:0.8;" x="57.6" xlink:href="#m5b5d135f45" y="129.617393"/>
      </g>
     </g>
     <g id="text_12">
      <text style="font-family:DejaVu Sans;font-size:10px;font-style:normal;font-weight:normal;text-anchor:end;" transform="rotate(-0, 50.6, 133.416611)" x="50.6" y="133.416611">0.8</text>
     </g>
    </g>
    <g id="ytick_6">
     <g id="line2d_12">
      <g>
       <use style="stroke:#000000;stroke-width:0.8;" x="57.6" xlink:href="#m5b5d135f45" y="91.573675"/>
      </g>
     </g>
     <g id="text_13">
      <text style="font-family:DejaVu Sans;font-size:10px;font-style:normal;font-weight:normal;text-anchor:end;" transform="rotate(-0, 50.6, 95.372894)" x="50.6" y="95.372894">0.9</text>
     </g>
    </g>
    <g id="ytick_7">
     <g id="line2d_13">
      <g>
       <use style="stroke:#000000;stroke-width:0.8;" x="57.6" xlink:href="#m5b5d135f45" y="53.529958"/>
      </g>
     </g>
     <g id="text_14">
      <text style="font-family:DejaVu Sans;font-size:10px;font-style:normal;font-weight:normal;text-anchor:end;" transform="rotate(-0, 50.6, 57.329177)" x="50.6" y="57.329177">1.0</text>
     </g>
    </g>
    <g id="text_15">
     <text style="font-family:DejaVu Sans;font-size:10px;font-style:normal;font-weight:normal;text-anchor:middle;" transform="rotate(-90, 28.617187, 174.528)" x="28.617187" y="174.528">Simulated Mean / Function Value</text>
    </g>
   </g>
   <g id="line2d_14">
    <path clip-path="url(#pa82ace9c5a)" d="M 73.832727 53.568 
L 77.112066 57.390314 
L 80.391405 61.17422 
L 83.670744 64.920105 
L 86.950083 68.628351 
L 90.229421 72.299336 
L 93.50876 75.933434 
L 96.788099 79.531016 
L 100.067438 83.092449 
L 103.346777 86.618097 
L 106.626116 90.108317 
L 109.905455 93.563468 
L 113.184793 96.983901 
L 116.464132 100.369964 
L 119.743471 103.722004 
L 123.02281 107.040362 
L 126.302149 110.325377 
L 129.581488 113.577383 
L 132.860826 116.796712 
L 136.140165 119.983693 
L 139.419504 123.138651 
L 142.698843 126.261907 
L 145.978182 129.353781 
L 149.257521 132.414586 
L 152.53686 135.444636 
L 155.816198 138.44424 
L 159.095537 141.413703 
L 162.374876 144.353329 
L 165.654215 147.263416 
L 168.933554 150.144263 
L 172.212893 152.996162 
L 175.492231 155.819405 
L 178.77157 158.61428 
L 182.050909 161.381071 
L 185.330248 164.120061 
L 188.609587 166.83153 
L 191.888926 169.515753 
L 195.168264 172.173004 
L 198.447603 174.803555 
L 201.726942 177.407674 
L 205.006281 179.985626 
L 208.28562 182.537674 
L 211.564959 185.064079 
L 214.844298 187.565098 
L 218.123636 190.040987 
L 221.402975 192.491997 
L 224.682314 194.91838 
L 227.961653 197.320381 
L 231.240992 199.698247 
L 234.520331 202.05222 
L 237.799669 204.38254 
L 241.079008 206.689444 
L 244.358347 208.973168 
L 247.637686 211.233945 
L 250.917025 213.472005 
L 254.196364 215.687576 
L 257.475702 217.880886 
L 260.755041 220.052156 
L 264.03438 222.201609 
L 267.313719 224.329465 
L 270.593058 226.435939 
L 273.872397 228.521247 
L 277.151736 230.585601 
L 280.431074 232.629213 
L 283.710413 234.652289 
L 286.989752 236.655038 
L 290.269091 238.637663 
L 293.54843 240.600366 
L 296.827769 242.543347 
L 300.107107 244.466805 
L 303.386446 246.370936 
L 306.665785 248.255934 
L 309.945124 250.121991 
L 313.224463 251.969297 
L 316.503802 253.798042 
L 319.78314 255.608411 
L 323.062479 257.400589 
L 326.341818 259.174759 
L 329.621157 260.931102 
L 332.900496 262.669797 
L 336.179835 264.391021 
L 339.459174 266.09495 
L 342.738512 267.781757 
L 346.017851 269.451615 
L 349.29719 271.104695 
L 352.576529 272.741164 
L 355.855868 274.361189 
L 359.135207 275.964936 
L 362.414545 277.552568 
L 365.693884 279.124248 
L 368.973223 280.680135 
L 372.252562 282.220388 
L 375.531901 283.745165 
L 378.81124 285.25462 
L 382.090579 286.748908 
L 385.369917 288.228181 
L 388.649256 289.69259 
L 391.928595 291.142285 
L 395.207934 292.577413 
L 398.487273 293.99812 
" style="fill:none;stroke:#1f77b4;stroke-linecap:square;stroke-width:1.5;"/>
   </g>
   <g id="line2d_15">
    <path clip-path="url(#pa82ace9c5a)" d="M 73.832727 55.051707 
L 77.112066 58.856079 
L 80.391405 60.377827 
L 83.670744 64.182199 
L 86.950083 72.551817 
L 90.229421 73.312691 
L 93.50876 74.073566 
L 96.788099 80.921435 
L 100.067438 77.117063 
L 103.346777 79.399686 
L 106.626116 93.095424 
L 109.905455 93.856298 
L 113.184793 95.378047 
L 116.464132 97.66067 
L 119.743471 109.073785 
L 123.02281 103.747665 
L 126.302149 102.986791 
L 129.581488 115.921655 
L 132.860826 121.247775 
L 136.140165 112.878157 
L 139.419504 131.900016 
L 142.698843 125.052147 
L 145.978182 117.443403 
L 149.257521 125.813021 
L 152.53686 143.313131 
L 155.816198 139.508759 
L 159.095537 134.943513 
L 162.374876 153.965372 
L 165.654215 149.400126 
L 168.933554 150.161 
L 172.212893 143.313131 
L 175.492231 160.813241 
L 178.77157 157.008869 
L 182.050909 164.617613 
L 185.330248 144.074005 
L 188.609587 169.182859 
L 191.888926 152.443623 
L 195.168264 179.074225 
L 198.447603 175.269853 
L 201.726942 179.074225 
L 205.006281 182.117723 
L 208.28562 177.552476 
L 211.564959 188.204717 
L 214.844298 192.769963 
L 218.123636 168.421984 
L 221.402975 185.922094 
L 224.682314 199.617832 
L 227.961653 195.813461 
L 231.240992 211.030948 
L 234.520331 199.617832 
L 237.799669 195.813461 
L 241.079008 197.335209 
L 244.358347 218.639691 
L 247.637686 216.357068 
L 250.917025 211.030948 
L 254.196364 208.748325 
L 257.475702 208.748325 
L 260.755041 230.813681 
L 264.03438 230.813681 
L 267.313719 225.48756 
L 270.593058 233.096304 
L 273.872397 235.378927 
L 277.151736 217.878817 
L 280.431074 229.291932 
L 283.710413 234.618052 
L 286.989752 232.335429 
L 290.269091 238.422424 
L 293.54843 235.378927 
L 296.827769 257.444283 
L 300.107107 233.096304 
L 303.386446 231.574555 
L 306.665785 239.944173 
L 309.945124 253.639911 
L 313.224463 257.444283 
L 316.503802 239.183298 
L 319.78314 262.009529 
L 323.062479 240.705047 
L 326.341818 264.292152 
L 329.621157 248.313791 
L 332.900496 266.574775 
L 336.179835 265.053026 
L 339.459174 263.531277 
L 342.738512 263.531277 
L 346.017851 262.770403 
L 349.29719 269.618272 
L 352.576529 273.422644 
L 355.855868 281.031387 
L 359.135207 258.205157 
L 362.414545 274.183518 
L 365.693884 269.618272 
L 368.973223 284.835759 
L 372.252562 286.357508 
L 375.531901 272.66177 
L 378.81124 287.879257 
L 382.090579 286.357508 
L 385.369917 295.488 
" style="fill:none;stroke:#ff7f0e;stroke-linecap:square;stroke-width:1.5;"/>
   </g>
   <g id="patch_3">
    <path d="M 57.6 307.584 
L 57.6 41.472 
" style="fill:none;stroke:#000000;stroke-linecap:square;stroke-linejoin:miter;stroke-width:0.8;"/>
   </g>
   <g id="patch_4">
    <path d="M 414.72 307.584 
L 414.72 41.472 
" style="fill:none;stroke:#000000;stroke-linecap:square;stroke-linejoin:miter;stroke-width:0.8;"/>
   </g>
   <g id="patch_5">
    <path d="M 57.6 307.584 
L 414.72 307.584 
" style="fill:none;stroke:#000000;stroke-linecap:square;stroke-linejoin:miter;stroke-width:0.8;"/>
   </g>
   <g id="patch_6">
    <path d="M 57.6 41.472 
L 414.72 41.472 
" style="fill:none;stroke:#000000;stroke-linecap:square;stroke-linejoin:miter;stroke-width:0.8;"/>
   </g>
   <g id="text_16">
    <text style="font-family:DejaVu Sans;font-size:12px;font-style:normal;font-weight:normal;" transform="translate(94.453125 22.034625)">Simulated Mean for exp(-x) (Flajolet) Algorithm</text>
    <text style="font-family:DejaVu Sans;font-size:12px;font-style:normal;font-weight:normal;" transform="translate(132.609375 35.472)">(Wasserstein Distances in Legend)</text>
   </g>
   <g id="legend_1">
    <g id="patch_7">
     <path d="M 229.47 78.82825 
L 407.72 78.82825 
Q 409.72 78.82825 409.72 76.82825 
L 409.72 48.472 
Q 409.72 46.472 407.72 46.472 
L 229.47 46.472 
Q 227.47 46.472 227.47 48.472 
L 227.47 76.82825 
Q 227.47 78.82825 229.47 78.82825 
z
" style="fill:#ffffff;opacity:0.8;stroke:#cccccc;stroke-linejoin:miter;"/>
    </g>
    <g id="line2d_16">
     <path d="M 231.47 54.570437 
L 251.47 54.570437 
" style="fill:none;stroke:#1f77b4;stroke-linecap:square;stroke-width:1.5;"/>
    </g>
    <g id="line2d_17"/>
    <g id="text_17">
     <text style="font-family:DejaVu Sans;font-size:10px;font-style:normal;font-weight:normal;text-anchor:start;" transform="rotate(-0, 259.47, 58.070437)" x="259.47" y="58.070437">exp(-x)</text>
    </g>
    <g id="line2d_18">
     <path d="M 231.47 69.248562 
L 251.47 69.248562 
" style="fill:none;stroke:#ff7f0e;stroke-linecap:square;stroke-width:1.5;"/>
    </g>
    <g id="line2d_19"/>
    <g id="text_18">
     <text style="font-family:DejaVu Sans;font-size:10px;font-style:normal;font-weight:normal;text-anchor:start;" transform="rotate(-0, 259.47, 72.748562)" x="259.47" y="72.748562">Simul. Mean (WD=0.006540)</text>
    </g>
   </g>
  </g>
 </g>
 <defs>
  <clipPath id="pa82ace9c5a">
   <rect height="266.112" width="357.12" x="57.6" y="41.472"/>
  </clipPath>
 </defs>
</svg>

<svg height="460.8" viewBox="0 0 460.8 345.6" width="614.4" xmlns="http://www.w3.org/2000/svg" xmlns:xlink="http://www.w3.org/1999/xlink"><defs><style>*{stroke-linecap:butt;stroke-linejoin:round}</style></defs><g id="figure_1"><path d="M0 345.6h460.8V0H0z" fill="#fff" id="patch_1"/><g id="axes_1"><path d="M57.6 307.584h357.12V41.472H57.6z" fill="#fff" id="patch_2"/><g id="matplotlib.axis_1"><g id="xtick_1"><g id="line2d_1"><defs><path d="M0 0v3.5" id="m805962f508" stroke="#000" stroke-width=".8"/></defs><use x="73.8" xlink:href="#m805962f508" y="307.584" stroke="#000" stroke-width=".8"/></g><text x="73.8" y="322.182" font-family="DejaVu Sans" font-size="10" font-weight="400" text-anchor="middle" id="text_1">0.0</text></g><g id="xtick_2"><use x="138.744" xlink:href="#m805962f508" y="307.584" stroke="#000" stroke-width=".8" id="line2d_2"/><text x="138.744" y="322.182" font-family="DejaVu Sans" font-size="10" font-weight="400" text-anchor="middle" id="text_2">0.2</text></g><g id="xtick_3"><use x="203.688" xlink:href="#m805962f508" y="307.584" stroke="#000" stroke-width=".8" id="line2d_3"/><text x="203.688" y="322.182" font-family="DejaVu Sans" font-size="10" font-weight="400" text-anchor="middle" id="text_3">0.4</text></g><g id="xtick_4"><use x="268.632" xlink:href="#m805962f508" y="307.584" stroke="#000" stroke-width=".8" id="line2d_4"/><text x="268.632" y="322.182" font-family="DejaVu Sans" font-size="10" font-weight="400" text-anchor="middle" id="text_4">0.6</text></g><g id="xtick_5"><use x="333.576" xlink:href="#m805962f508" y="307.584" stroke="#000" stroke-width=".8" id="line2d_5"/><text x="333.576" y="322.182" font-family="DejaVu Sans" font-size="10" font-weight="400" text-anchor="middle" id="text_5">0.8</text></g><g id="xtick_6"><use x="398.52" xlink:href="#m805962f508" y="307.584" stroke="#000" stroke-width=".8" id="line2d_6"/><text x="398.52" y="322.182" font-family="DejaVu Sans" font-size="10" font-weight="400" text-anchor="middle" id="text_6">1.0</text></g><text x="236.16" y="335.861" font-family="DejaVu Sans" font-size="10" font-weight="400" text-anchor="middle" id="text_7">Input Coin&apos;s Heads Probability (λ)</text></g><g id="matplotlib.axis_2"><g id="ytick_1"><g id="line2d_7"><defs><path d="M0 0h-3.5" id="m5b5d135f45" stroke="#000" stroke-width=".8"/></defs><use x="57.6" xlink:href="#m5b5d135f45" y="281.792" stroke="#000" stroke-width=".8"/></g><text x="50.6" y="285.591" font-family="DejaVu Sans" font-size="10" font-weight="400" text-anchor="end" id="text_8">0.4</text></g><g id="ytick_2"><use x="57.6" xlink:href="#m5b5d135f45" y="243.749" stroke="#000" stroke-width=".8" id="line2d_8"/><text x="50.6" y="247.548" font-family="DejaVu Sans" font-size="10" font-weight="400" text-anchor="end" id="text_9">0.5</text></g><g id="ytick_3"><use x="57.6" xlink:href="#m5b5d135f45" y="205.705" stroke="#000" stroke-width=".8" id="line2d_9"/><text x="50.6" y="209.504" font-family="DejaVu Sans" font-size="10" font-weight="400" text-anchor="end" id="text_10">0.6</text></g><g id="ytick_4"><use x="57.6" xlink:href="#m5b5d135f45" y="167.661" stroke="#000" stroke-width=".8" id="line2d_10"/><text x="50.6" y="171.46" font-family="DejaVu Sans" font-size="10" font-weight="400" text-anchor="end" id="text_11">0.7</text></g><g id="ytick_5"><use x="57.6" xlink:href="#m5b5d135f45" y="129.617" stroke="#000" stroke-width=".8" id="line2d_11"/><text x="50.6" y="133.417" font-family="DejaVu Sans" font-size="10" font-weight="400" text-anchor="end" id="text_12">0.8</text></g><g id="ytick_6"><use x="57.6" xlink:href="#m5b5d135f45" y="91.574" stroke="#000" stroke-width=".8" id="line2d_12"/><text x="50.6" y="95.373" font-family="DejaVu Sans" font-size="10" font-weight="400" text-anchor="end" id="text_13">0.9</text></g><g id="ytick_7"><use x="57.6" xlink:href="#m5b5d135f45" y="53.53" stroke="#000" stroke-width=".8" id="line2d_13"/><text x="50.6" y="57.329" font-family="DejaVu Sans" font-size="10" font-weight="400" text-anchor="end" id="text_14">1.0</text></g><text transform="rotate(-90 28.617 174.528)" x="28.617" y="174.528" font-family="DejaVu Sans" font-size="10" font-weight="400" text-anchor="middle" id="text_15">Simulated Mean / Function Value</text></g><path clip-path="url(#pa82ace9c5a)" d="M73.833 53.568l3.28 3.822 3.278 3.784 3.28 3.746 3.28 3.708 3.278 3.671 3.28 3.634 3.28 3.598 3.278 3.561 3.28 3.526 3.28 3.49 3.278 3.455 3.28 3.42 3.28 3.387 3.278 3.352 3.28 3.318 3.28 3.285 3.278 3.252 3.28 3.22 3.28 3.187 3.279 3.155 3.279 3.123 3.28 3.092 3.279 3.06 3.279 3.03 3.28 3 3.279 2.97 3.279 2.94 3.28 2.91 3.279 2.88 3.279 2.852 3.28 2.823 3.279 2.795 3.279 2.767 3.28 2.74 3.279 2.71 3.279 2.685 3.28 2.657 3.279 2.63 3.279 2.605 3.28 2.578 3.279 2.552 3.279 2.526 3.28 2.501 3.279 2.476 3.279 2.451 3.28 2.426 3.279 2.402 3.279 2.378 3.28 2.354 3.279 2.33 3.279 2.307 3.28 2.284 3.279 2.26 3.279 2.239 3.28 2.216 3.279 2.193 3.279 2.171 3.28 2.15 3.279 2.127 3.28 2.107 3.278 2.085 3.28 2.065 3.28 2.043 3.278 2.023 3.28 2.003 3.28 1.983 3.278 1.962 3.28 1.943 3.28 1.924 3.278 1.904 3.28 1.885 3.28 1.866 3.278 1.847 3.28 1.829 3.28 1.81 3.278 1.793 3.28 1.774 3.28 1.756 3.278 1.739 3.28 1.721 3.28 1.704 3.279 1.687 3.279 1.67 3.28 1.653 3.279 1.636 3.279 1.62 3.28 1.604 3.279 1.588 3.279 1.571 3.28 1.556 3.279 1.54 3.279 1.525 3.28 1.51 3.279 1.494 3.279 1.48 3.28 1.464 3.279 1.45 3.279 1.434 3.28 1.421" fill="none" stroke="#1f77b4" stroke-linecap="square" stroke-width="1.5" id="line2d_14"/><path clip-path="url(#pa82ace9c5a)" d="M73.833 55.052l3.28 3.804 3.278 1.522 3.28 3.804 3.28 8.37 3.278.76 3.28.762 3.28 6.847 3.278-3.804 3.28 2.283 3.28 13.695 3.278.761 3.28 1.522 3.28 2.283 3.278 11.413 3.28-5.326 3.28-.761 3.278 12.935 3.28 5.326 3.28-8.37 3.279 19.022 3.279-6.848 3.28-7.609 3.279 8.37 3.279 17.5 3.28-3.804 3.279-4.565 3.279 19.021 3.28-4.565 3.279.761 3.279-6.848 3.28 17.5 3.279-3.804 3.279 7.609 3.28-20.544 3.279 25.109 3.279-16.74 3.28 26.631 3.279-3.804 3.279 3.804 3.28 3.044 3.279-4.566 3.279 10.653 3.28 4.565 3.279-24.348 3.279 17.5 3.28 13.696 3.279-3.805 3.279 15.218 3.28-11.413 3.279-3.805 3.279 1.522 3.28 21.305 3.279-2.283 3.279-5.326 3.28-2.283h3.279l3.279 22.066h3.28l3.279-5.326 3.28 7.608 3.278 2.283 3.28-17.5 3.28 11.413 3.278 5.326 3.28-2.283 3.28 6.087 3.278-3.043 3.28 22.065 3.28-24.348 3.278-1.521 3.28 8.37 3.28 13.695 3.278 3.804 3.28-18.26 3.28 22.826 3.278-21.305 3.28 23.587 3.28-15.978 3.278 18.26 3.28-1.521 3.28-1.522h3.279l3.279-.76 3.28 6.847 3.279 3.805 3.279 7.608 3.28-22.826 3.279 15.979 3.279-4.566 3.28 15.218 3.279 1.522 3.279-13.696 3.28 15.217 3.279-1.521 3.279 9.13" fill="none" stroke="#ff7f0e" stroke-linecap="square" stroke-width="1.5" id="line2d_15"/><path d="M57.6 307.584V41.472" fill="none" stroke="#000" stroke-linecap="square" stroke-width=".8" id="patch_3"/><path d="M414.72 307.584V41.472" fill="none" stroke="#000" stroke-linecap="square" stroke-width=".8" id="patch_4"/><path d="M57.6 307.584h357.12" fill="none" stroke="#000" stroke-linecap="square" stroke-width=".8" id="patch_5"/><path d="M57.6 41.472h357.12" fill="none" stroke="#000" stroke-linecap="square" stroke-width=".8" id="patch_6"/><g id="text_16" font-family="DejaVu Sans" font-size="12" font-weight="400"><text transform="translate(94.453 22.035)">Simulated Mean for exp(-x) (Flajolet) Algorithm</text><text transform="translate(132.61 35.472)">(Wasserstein Distances in Legend)</text></g><g id="legend_1"><path d="M229.47 78.828h178.25q2 0 2-2V48.472q0-2-2-2H229.47q-2 0-2 2v28.356q0 2 2 2z" fill="#fff" opacity=".8" stroke="#ccc" id="patch_7"/><path d="M231.47 54.57h20" fill="none" stroke="#1f77b4" stroke-linecap="square" stroke-width="1.5" id="line2d_16"/><text x="259.47" y="58.07" font-family="DejaVu Sans" font-size="10" font-weight="400" id="text_17">exp(-x)</text><path d="M231.47 69.249h20" fill="none" stroke="#ff7f0e" stroke-linecap="square" stroke-width="1.5" id="line2d_18"/><text x="259.47" y="72.749" font-family="DejaVu Sans" font-size="10" font-weight="400" id="text_18">Simul. Mean (WD=0.006540)</text></g></g></g><defs><clipPath id="pa82ace9c5a"><path d="M57.6 41.472h357.12v266.112H57.6z"/></clipPath></defs></svg>
